outputs/icons/content/content_round.svg

<svg xmlns="http://www.w3.org/2000/svg" width="1200" height="1200" fill="none"><g clip-path="url(#a)"><path fill="#000" d="M800 50H200c-55 0-100 45-100 100v700h100V150h600zm150 200H400c-55 0-100 45-100 100v700c0 55 45 100 100 100h550c55 0 100-45 100-100V350c0-55-45-100-100-100m0 800H400V350h550z"/></g><defs><clipPath id="a"><path fill="#fff" d="M0 0h1200v1200H0z"/></clipPath></defs></svg>

<svg width="1200" height="1200" viewBox="0 0 1200 1200" fill="none" xmlns="http://www.w3.org/2000/svg"><g clip-path="url(#clip0_225_3304)"><path d="M800 50H200C145 50 100 95 100 150V850H200V150H800V50ZM950 250H400C345 250 300 295 300 350V1050C300 1105 345 1150 400 1150H950C1005 1150 1050 1105 1050 1050V350C1050 295 1005 250 950 250ZM950 1050H400V350H950V1050Z" fill="black"/></g><defs><clipPath id="clip0_225_3304"><path width="24" fill="white" d="M0 0H1200V1200H0V0z"/></clipPath></defs></svg>
